!!!!SEGMENT: pl-sa--481-a-viii-121--048_vanhal-johann-baptist--allegro.krn
!!!cenid: 18xx:419
!!!COM: Vanhal, Johann Baptist
!!!COM-rismid: pe114557
!!!CDT: 1739/05/12-1813/08/20
!!!CNT: Czech
!!!OTL: Allegro
!!!PDT:
!!!AGN: Secular
!!!SMS-siglum: PL-SA
!!!SMS-shelfmark: 481/A VIII 121
!!!SMS-shelfwork: 048 W
!!!SMS-variant:
!!!SMS-altvar:
!!!NIFC-rismid: 1001070736
!!!URL-scan: http://bc.bdsandomierz.pl/dlibra/publication/1212/edition/1171/content
!!!ONB-nifc: Str. 34-35 (s. 1)
!!!AIN: 2 empty
!!!key:
**kern	**kern
*part2	*part1
*staff2	*staff1
*Iempty	*Iempty
*I"	*I"
*clefF4	*clefG2
*k[]	*k[]
*C:	*C:
*M2/4	*M2/4
*>[A,A,B,B,C,C]	*>[A,A,B,B,C,C]
=1	=1
*>A	*>A
!	!LO:TX:a:t=Allegro
8CC/L	8.eeL 8.g\
!LO:TX:t=P:problem=mixed beam	!
8C\J	.
.	16ddJk 16f\
8CC/L	8ccL 8e/
!LO:TX:t=P:problem=mixed beam	!
8C\J	8ccJ 8e/
=2	=2
!LO:TX:a:t=P:problem=przed tym taktem wykreślony takt	!LO:TX:a:t=P:problem=przed tym taktem wykreślony takt
*rep	*
8CC/L	4.cc 4.e/
!LO:TX:t=P:problem=mixed beam	!
8C\J	.
8CC/L	.
!LO:TX:t=P:problem=mixed beam	!
8C\J	8b 8g/
*Xrep	*
=3	=3
8FF/L	8.aL 8.f/
!LO:TX:t=P:problem=mixed beam	!
8F\J	.
.	16gJk 16e/
8FF/L	8fL 8d/
!LO:TX:t=P:problem=mixed beam	!
8F\J	8fJ 8d/
=4	=4
8GG/L	4.f 4.d/
!LO:TX:t=P:problem=mixed beam	!
8G\J	.
8GG/L	.
!LO:TX:t=P:problem=mixed beam	!
8G\J	8d 8B/
=5	=5
4C/	16e/LL
.	16c/
.	16d/
.	16e/JJ
4r	16f\LL
.	16g\
.	16a\
.	16b\JJ
=6	=6
2r	16cc\LL
.	16dd\
.	16ee\
.	16ff\JJ
.	16gg/LL
.	16ee/
.	16dd/
.	16cc/JJ
=7	=7
8eL 8c\	8cc\L
8f 8G\	16b\L
.	16dd\JJ
8e 8c\	8cc\L
8fJ 8G\	16b\L
.	16dd\JJ
=8	=8
4e 4c\	4cc\
!LO:N:vis=4	!
8r	4r
!LO:N:vis=4	!
8r	.
=9	=9
8CC/L	8.eeL 8.g/
!LO:TX:t=P:problem=mixed beam	!
8C\J	.
.	16ddJk 16f/
*rep	*
8CC/L	8ccL 8e/
8C\J	8ccJ 8e/
*Xrep	*
!LO:LB:g=original	!LO:LB:g=original
=10	=10
*rep	*
8CC/L	4.cc 4.e/
!LO:TX:t=P:problem=mixed beam	!
8C\J	.
*Xrep	*
*rep	*
8CC/L	.
!LO:TX:t=P:problem=mixed beam	!
8C\J	8b 8g/
*Xrep	*
=11	=11
8FF/L	8.aL 8.f/
!LO:TX:t=P:problem=mixed beam	!
8F\J	.
.	16gJk 16e/
*rep	*
8FF/L	8fL 8d/
!LO:TX:t=P:problem=mixed beam	!
8F\J	8fJ 8d/
*Xrep	*
=12	=12
8GG/L	4.f 4.d/
!LO:TX:t=P:problem=mixed beam	!
8G\J	.
*rep	*
8GG/L	.
!LO:TX:t=P:problem=mixed beam	!
8G\J	8d 8B/
*Xrep	*
=13	=13
4C/	16e\LL
.	16c\
.	16d\
.	16e\JJ
4r	16f\LL
.	16g\
.	16a\
.	16b\JJ
=14	=14
4r	16cc\LL
.	16dd\
.	16ee\
.	16ff\JJ
8r	8gg/L
8f 8G\	8b/J
=15	=15
8eL 8c\	8cc/L
8f 8G\	16b/L
.	16dd/JJ
8e 8c\	8cc/L
8fJ 8G\	16b/L
.	16dd/JJ
=16	=16
4e 4c\	4cc\
4r	4r
=17:|!|:	=17:|!|:
*>B	*>B
8GG/L	8.dddL 8.gg\
!LO:TX:t=P:problem=mixed beam	!
8G\J	.
.	16cccJk 16aa\
8GG/L	8bbL 8gg\
!LO:TX:t=P:problem=mixed beam	!
8G\J	8bbJ 8gg\
=18	=18
*rep	*
8GG/L	4.bb 4.gg\
!LO:TX:t=P:problem=mixed beam	!
8G\J	.
8GG/L	.
!LO:TX:t=P:problem=mixed beam	!
8G\J	8bb 8dd\
*Xrep	*
=19	=19
*rep	*
8GG/L	8.bbL 8.dd\
!LO:TX:t=P:problem=mixed beam	!
8G\J	.
.	16aaJk 16cc\
8GG/L	8ggL 8b\
!LO:TX:t=P:problem=mixed beam	!
8G\J	8ggJ 8b\
*Xrep	*
=20	=20
*rep	*
8GG/L	4gg 4b\
!LO:TX:t=P:problem=mixed beam	!
8G\J	.
8GG/L	4r
!LO:TX:t=P:problem=mixed beam	!
8G\J	.
*Xrep	*
=21	=21
8BB\L	16r
.	16g\LL
8G\	16dd\
.	16ff\JJ
8C\	16r
.	16g\LL
8G\J	16cc\
.	16ee\JJ
!LO:LB:g=original	!LO:LB:g=original
=22	=22
8F\L	16r
.	16g\LL
8G\	16b\
.	16dd\JJ
8E\	16r
.	16g\LL
8G\J	16cc\
.	16ee\JJ
=23	=23
8BB\L	16r
.	16g\LL
8G\	16dd\
.	16ff\JJ
8C\	16r
.	16g\LL
8G\J	16cc\
.	16ee\JJ
=24	=24
4GG/	4gg 4dd 4b\
4r	8ff#X\L
.	8ffn\J
=25	=25
8CC/L	8.eeL 8.g/
!LO:TX:t=P:problem=mixed beam	!
8C\J	.
.	16ddJk 16f/
*rep	*
8CC/L	8ccL 8e/
!LO:TX:t=P:problem=mixed beam	!
8C\J	8ccJ 8e/
*Xrep	*
=26	=26
*rep	*
8CC/L	4.cc 4.e/
!LO:TX:t=P:problem=mixed beam	!
8C\J	.
8CC/L	.
!LO:TX:t=P:problem=mixed beam	!
8C\J	8b 8g/
*Xrep	*
=27	=27
8FF/L	8.aL 8.f/
!LO:TX:t=P:problem=mixed beam	!
8F\J	.
.	16gJk 16e/
*rep	*
8FF/L	8fL 8d/
!LO:TX:t=P:problem=mixed beam	!
8F\J	8fJ 8d/
*Xrep	*
=28	=28
8GG/L	4.f 4.d/
!LO:TX:t=P:problem=mixed beam	!
8G\J	.
8GG/L	.
!LO:TX:t=P:problem=mixed beam	!
8G\J	8d 8B/
=29	=29
4C/	16e\LL
.	16c\
.	16d\
.	16e\JJ
4r	16f\LL
.	16g\
.	16a\
.	16b\JJ
=30	=30
4r	16cc\LL
.	16dd\
.	16ee\
.	16ff\JJ
8r	8gg\L
8f 8G\	8b\J
=31	=31
8eL 8c\	8cc\L
8f 8G\	16b\L
.	16dd\JJ
8e 8c\	8cc\L
8fJ 8G\	16b\L
.	16dd\JJ
=32	=32
4e 4c\	4cc\
4r	4r
!LO:LB:g=original	!LO:LB:g=original
=33:|!|:	=33:|!|:
*>C	*>C
*2\right	*
2f 2d 2G\	8.gg\L
.	16dd\K
.	8b\
.	8b\J
=34	=34
2f 2d 2G\	8.gg\L
.	16dd\K
.	8b\
.	8b\J
=35	=35
4e 4c\	16cc\LL
.	16dd\
.	16cc\
.	16b\JJ
4r	16cc\LL
.	16dd\
.	16ee\
.	16ff\JJ
=36	=36
2r	16gg\LL
.	16aa\
.	16bb\
.	16ccc\JJ
.	8gg\
.	8r
=37	=37
2f 2d 2G\	8.gg\L
.	16dd\K
.	8b\
.	8b\J
=38	=38
2f 2d 2G\	8.gg\L
.	16dd\K
.	8b\
.	8b\J
=39	=39
4e 4c\	4cc\
4G 4GG/	4bb 4gg 4ff 4dd\
=40	=40
4C 4CC/	4ccc 4gg 4ee 4cc\
4r	4r
=41	=41
2F 2D 2GG/	8.g/L
.	16d/K
.	8B/
.	8B/J
=42	=42
2F 2D 2GG/	8.g/L
.	16d/K
.	8B/
.	8B/J
=43	=43
4C/	16c/LL
.	16d/
.	16c/
.	16B/JJ
4r	16c/LL
.	16d/
.	16e/
.	16f/JJ
=44	=44
2r	16g/LL
.	16a/
.	16b/
.	16cc/JJ
.	8g/
.	8r
=45	=45
2F 2D 2GG/	8.ggL 8.dd 8.b 8.g/
.	16dd/K
.	8b/
.	8g/J
=46	=46
2F 2D 2GG/	8.ggL 8.dd 8.b 8.g/
.	16dd/K
.	8b/
.	8g/J
!LO:PB:g=original	!LO:PB:g=original
=47	=47
8r	4gg 4dd 4b\
8r	.
4G 4GG/	4bb 4gg 4ff 4dd\
=48	=48
4C 4CC/	4ccc 4gg 4ee 4cc\
4r	4r
=:|!;;	=:|!;;
*-	*-
!!!system-decoration: {s1,s2}
!!!ENC: Marta Lawrence
!!!END: 2020-11-23
!!!ENC: Mateusz Solarz
!!!END: 2020-06-15
